img/github-bw.svg

<?xml version="1.0" encoding="UTF-8" standalone="no"?>
<!-- Created with Inkscape (http://www.inkscape.org/) -->

<svg
   xmlns:dc="http://purl.org/dc/elements/1.1/"
   xmlns:cc="http://creativecommons.org/ns#"
   xmlns:rdf="http://www.w3.org/1999/02/22-rdf-syntax-ns#"
   xmlns:svg="http://www.w3.org/2000/svg"
   xmlns="http://www.w3.org/2000/svg"
   version="1.1"
   width="32"
   height="32">
  <path
      d="m 0,0 0,32 12.15625,0 c 0.0084,-1.68286 0.03625,-3.4525 0.03125,-4.3125 -4.44756,0.96589 -5.40625,-2.125 -5.40625,-2.125 -0.72735,-1.84634 -1.75,-2.375 -1.75,-2.375 C 3.57951,22.19514 5.125,22.21875 5.125,22.21875 6.72989,22.3326 7.5625,23.875 7.5625,23.875 c 1.42625,2.44316 3.77659,1.72085 4.6875,1.3125 0.14528,-1.03361 0.54258,-1.7255 1,-2.125 -3.55038,-0.40343 -7.28125,-1.77918 -7.28125,-7.90625 0,-1.74526 0.60219,-3.19448 1.625,-4.3125 -0.16491,-0.4044 -0.68219,-1.98582 0.1875,-4.1875 0,0 0.07684,-0.0525 0.25,-0.0625 0.51948,-0.02945 1.83399,0.13563 4.125,1.6875 C 13.43135,7.92691 14.828,7.756 16.1875,7.75 c 1.35754,0.006 2.69173,0.17691 3.96875,0.53125 3.05273,-2.06918 4.40625,-1.625 4.40625,-1.625 0.87263,2.20168 0.32117,3.7831 0.15625,4.1875 1.02478,1.11802 1.65625,2.56724 1.65625,4.3125 0,6.14276 -3.75034,7.47942 -7.3125,7.875 C 19.63675,23.52499 20.125,24.508 20.125,26 l 0,6 L 32,32 32,0 0,0 z"
      style="fill:#222222;fill-opacity:1;fill-rule:nonzero;stroke:none" />
</svg>

<?xml version="1.0" encoding="UTF-8" standalone="no"?>
<!-- Created with Inkscape (http://www.inkscape.org/) -->

<svg
   xmlns:dc="http://purl.org/dc/elements/1.1/"
   xmlns:cc="http://creativecommons.org/ns#"
   xmlns:rdf="http://www.w3.org/1999/02/22-rdf-syntax-ns#"
   xmlns:svg="http://www.w3.org/2000/svg"
   xmlns="http://www.w3.org/2000/svg"
   xmlns:sodipodi="http://sodipodi.sourceforge.net/DTD/sodipodi-0.dtd"
   xmlns:inkscape="http://www.inkscape.org/namespaces/inkscape"
   width="32"
   height="32"
   id="svg5006"
   version="1.1"
   inkscape:version="0.48.4 r9939"
   sodipodi:docname="github.svg">
  <defs
     id="defs5008" />
  <sodipodi:namedview
     id="base"
     pagecolor="#ffffff"
     bordercolor="#666666"
     borderopacity="1.0"
     inkscape:pageopacity="0.0"
     inkscape:pageshadow="2"
     inkscape:zoom="23.475798"
     inkscape:cx="11.405939"
     inkscape:cy="15.396832"
     inkscape:document-units="px"
     inkscape:current-layer="layer1"
     showgrid="false"
     fit-margin-top="0"
     fit-margin-left="0"
     fit-margin-right="0"
     fit-margin-bottom="0"
     inkscape:window-width="1855"
     inkscape:window-height="1056"
     inkscape:window-x="65"
     inkscape:window-y="24"
     inkscape:window-maximized="1" />
  <metadata
     id="metadata5011">
    <rdf:RDF>
      <cc:Work
         rdf:about="">
        <dc:format>image/svg+xml</dc:format>
        <dc:type
           rdf:resource="http://purl.org/dc/dcmitype/StillImage" />
        <dc:title></dc:title>
      </cc:Work>
    </rdf:RDF>
  </metadata>
  <g
     inkscape:label="Layer 1"
     inkscape:groupmode="layer"
     id="layer1"
     transform="translate(-358.32751,-517.03473)">
    <path
       style="fill:#222222;fill-opacity:1;fill-rule:nonzero;stroke:none"
       d="M 0 0 L 0 32 L 12.15625 32 C 12.16465 30.31714 12.1925 28.5475 12.1875 27.6875 C 7.73994 28.65339 6.78125 25.5625 6.78125 25.5625 C 6.0539 23.71616 5.03125 23.1875 5.03125 23.1875 C 3.57951 22.19514 5.125 22.21875 5.125 22.21875 C 6.72989 22.3326 7.5625 23.875 7.5625 23.875 C 8.98875 26.31816 11.33909 25.59585 12.25 25.1875 C 12.39528 24.15389 12.79258 23.462 13.25 23.0625 C 9.69962 22.65907 5.96875 21.28332 5.96875 15.15625 C 5.96875 13.41099 6.57094 11.96177 7.59375 10.84375 C 7.42884 10.43935 6.91156 8.85793 7.78125 6.65625 C 7.78125 6.65625 7.85809 6.60375 8.03125 6.59375 C 8.55073 6.5643 9.86524 6.72938 12.15625 8.28125 C 13.43135 7.92691 14.828 7.756 16.1875 7.75 C 17.54504 7.756 18.87923 7.92691 20.15625 8.28125 C 23.20898 6.21207 24.5625 6.65625 24.5625 6.65625 C 25.43513 8.85793 24.88367 10.43935 24.71875 10.84375 C 25.74353 11.96177 26.375 13.41099 26.375 15.15625 C 26.375 21.29901 22.62466 22.63567 19.0625 23.03125 C 19.63675 23.52499 20.125 24.508 20.125 26 L 20.125 32 L 32 32 L 32 0 L 0 0 z "
       transform="translate(358.32751,517.03473)"
       id="rect4937" />
  </g>
</svg>
